src/22x22/places/folder-gruvbox-material-orange-desktop.svg

<?xml version="1.0" encoding="UTF-8"?>
<svg width="22" height="22" version="1.1" xmlns="http://www.w3.org/2000/svg">
 <rect x="1" y="2.5" width="20" height="18" rx="1" ry="1" opacity=".2"/>
 <path d="m1 3.9v15.1c0 0.554 0.446 1 1 1h18c0.554 0 1-0.446 1-1v-15.1z" fill="#e78a4e"/>
 <path d="m2 2c-0.554 0-1 0.45-1 1v1h20v-1c0-0.55-0.446-1-1-1z" fill="#564135"/>
 <path d="m7 18c-0.554 0-1 0.45-1 1v1h10v-1c0-0.55-0.446-1-1-1z" fill="#564135"/>
 <path d="m2 2c-0.554 0-1 0.45-1 1v0.5c0-0.55 0.446-1 1-1h18c0.554 0 1 0.45 1 1v-0.5c0-0.55-0.446-1-1-1z" fill="#F5E4C1" opacity=".1"/>
</svg>

<svg xmlns="http://www.w3.org/2000/svg" width="22" height="22" version="1.1">
 <rect style="opacity:0.2" width="20" height="18" x="1" y="2.5" rx="1" ry="1"/>
 <path style="fill:#e78a4e" d="M 1,3.9 1,19 c 0,0.554 0.446,1 1,1 l 18,0 c 0.554,0 1,-0.446 1,-1 L 21,3.9 Z"/>
 <path style="fill:#564135" d="M 2,2 C 1.446,2 1,2.45 1,3 V 4 H 21 V 3 C 21,2.45 20.554,2 20,2 Z"/>
 <path style="fill:#564135" d="M 7,18 C 6.446,18 6,18.45 6,19 V 20 H 16 V 19 C 16,18.45 15.554,18 15,18 Z"/>
 <path style="opacity:0.1;fill:#F5E4C1" d="M 2,2 C 1.446,2 1,2.45 1,3 V 3.5 C 1,2.95 1.446,2.5 2,2.5 H 20 C 20.554,2.5 21,2.95 21,3.5 V 3 C 21,2.45 20.554,2 20,2 Z"/>
</svg>
